src/images/logo.svg

<?xml version="1.0" encoding="UTF-8"?>
<svg width="113px" height="127px" viewBox="0 0 113 127" version="1.1" xmlns="http://www.w3.org/2000/svg" xmlns:xlink="http://www.w3.org/1999/xlink">
    <!-- Generator: Sketch 42 (36781) - http://www.bohemiancoding.com/sketch -->
    <title>Group 4</title>
    <desc>Created with Sketch.</desc>
    <defs>
        <linearGradient x1="89.6918295%" y1="14.6087857%" x2="21.3608851%" y2="100%" id="linearGradient-1">
            <stop stop-color="#F9344D" offset="0%"></stop>
            <stop stop-color="#2F2FFF" offset="54.1015625%"></stop>
            <stop stop-color="#52CEF8" offset="100%"></stop>
        </linearGradient>
        <filter x="-50%" y="-50%" width="200%" height="200%" filterUnits="objectBoundingBox" id="filter-2">
            <feOffset dx="-2" dy="3" in="SourceAlpha" result="shadowOffsetOuter1"></feOffset>
            <feGaussianBlur stdDeviation="10" in="shadowOffsetOuter1" result="shadowBlurOuter1"></feGaussianBlur>
            <feColorMatrix values="0 0 0 0 0   0 0 0 0 0   0 0 0 0 0  0 0 0 0.552734375 0" type="matrix" in="shadowBlurOuter1" result="shadowMatrixOuter1"></feColorMatrix>
            <feMerge>
                <feMergeNode in="shadowMatrixOuter1"></feMergeNode>
                <feMergeNode in="SourceGraphic"></feMergeNode>
            </feMerge>
        </filter>
        <linearGradient x1="50%" y1="0%" x2="50%" y2="100%" id="linearGradient-3">
            <stop stop-color="#FFFFFF" stop-opacity="0.1" offset="0%"></stop>
            <stop stop-color="#FFFFFF" stop-opacity="0" offset="100%"></stop>
        </linearGradient>
        <path d="M30.502981,29.3271325 L30.502981,37.6679768 C30.502981,38.1245774 30.4635414,38.6587465 30.3921661,39.2208862 L35.4285545,43.1313215 C35.8808543,43.4825036 36.0023965,44.1599975 35.7030859,44.6469218 L35.727906,44.6065439 C35.4315923,45.0885927 34.7298572,45.4413357 34.1672306,45.3835278 L28.7062454,44.8224309 C28.0789409,46.0942791 27.1088631,47.5557155 25.9631802,47.5557155 C24.8189239,47.5557155 23.8555301,46.0979163 23.2331182,44.8271828 L17.8183822,45.3835278 C17.2557557,45.4413357 16.5540206,45.0885927 16.2577068,44.6065439 L16.282527,44.6469218 C15.9832164,44.1599975 16.1047585,43.4825036 16.5570584,43.1313215 L21.5685934,39.2401832 C21.4936647,38.6707386 21.4512568,38.1295243 21.4512568,37.6679768 L21.4512568,29.3337086 L2.64365434,30.2751415 C2.07803828,30.3034539 1.272517,30.0310862 0.839745237,29.6627682 L0.763072681,29.5975147 C0.332417253,29.2309978 -0.00926132072,28.4784398 0.000216074633,27.898021 L0.0139824505,27.0549344 C0.0233238081,26.4828469 0.435910565,25.8151378 0.958234832,25.552127 L21.4512568,15.2330858 L21.4512568,7.76344582 C21.4512568,6.33201633 21.9725998,4.14986906 22.6958321,2.91831281 C22.6958321,2.91831281 23.8389784,8.64519661e-15 25.9783465,7.10542736e-15 C28.1177146,7.10542736e-15 29.2594755,2.91831281 29.2594755,2.91831281 C29.9462446,4.1627764 30.502981,6.32432114 30.502981,7.76344582 L30.502981,15.1669338 L51.1273771,25.552127 C51.6497014,25.8151378 52.0622881,26.4828469 52.0716295,27.0549344 L52.0853959,27.898021 C52.0948732,28.4784398 51.7531947,29.2309978 51.3225392,29.5975147 L51.2458667,29.6627682 C50.8130949,30.0310862 50.0075736,30.3034539 49.4419576,30.2751415 L30.502981,29.3271325 Z" id="path-4"></path>
    </defs>
    <g stroke="none" stroke-width="1" fill="none" fill-rule="evenodd">
        <g transform="translate(-587.000000, -107.000000)">
            <g transform="translate(581.000000, 107.000000)">
                <g transform="translate(6.000000, 0.000000)">
                    <path d="M33.5604852,24.4695826 L50.6447435,41.5996329 C52.3633122,43.3228081 55.1334527,43.3166076 56.8458375,41.5996329 L74.4303043,23.9680332 C74.6886957,23.2778413 75.1606761,22.5745006 75.9066535,21.8707361 C81.4295596,16.6603568 85.8240256,10.7850983 87.2888476,12.2539129 C88.7536696,13.7227276 84.3592036,18.1291714 84.3592036,21.0668006 C84.3592036,24.0044298 89.1577053,18.9847904 90.6622078,20.3819826 C92.1667102,21.7791748 88.1742518,24.7795731 90.3671745,26.0268961 C92.5600973,27.2742191 104.180037,11.0407091 107.796356,13.7227276 C111.412675,16.404746 99.8064497,25.9714631 101.937068,28.4108737 C104.067686,30.8502843 95.9866235,33.0513255 98.9618455,34.4031361 C101.904486,35.7401433 102.822116,37.972228 100.548928,40.091054 L99.8824786,40.7619491 C98.4677831,42.361764 97.4974407,44.5492636 95.1229858,45.5341991 L77.9464358,62.7567886 C76.227867,64.4799638 76.2340509,67.2575293 77.9464358,68.9745039 L100.550254,91.6389087 L100.545382,91.6437937 C102.919243,94.0593319 111.910032,104.789233 106.331534,104.789233 C100.693984,104.789233 95.5187035,98.893233 93.2636837,101.217489 C91.0086639,103.541744 95.9112623,107.464323 95.2714979,109.068021 C94.6317334,110.67172 90.7614583,104.545893 88.5064385,105.676425 C86.2514187,106.806957 102.047611,121.098686 100.472246,122.415009 C98.8968804,123.731332 81.7413791,105.676425 81.7413791,111.329086 C81.7413791,116.981746 89.2065553,117.216316 85.8240256,119.47738 C82.4414959,121.738444 80.6138691,113.59015 73.8488097,109.068021 C71.9304708,107.785701 71.4627323,106.412475 71.7771658,105.103009 L56.8458375,90.1316596 C55.1272688,88.4084845 52.3571283,88.4146849 50.6447435,90.1316596 L35.2488534,105.568816 C35.3552274,106.735185 34.7917341,107.936965 33.0996851,109.068021 C26.3346257,113.59015 18.4420564,128.287066 15.0595267,126.026002 C11.676997,123.764938 25.2071158,116.981746 25.2071158,111.329086 C25.2071158,110.583775 25.1168941,110.057888 24.9566315,109.703503 L24.3902796,109.135634 C22.8644056,108.613061 19.6283966,112.320352 18.4420564,111.329086 C16.8666911,110.012762 20.6970762,106.806957 18.4420564,105.676425 C16.1870366,104.545893 12.3167614,110.67172 11.676997,109.068021 C11.0372325,107.464323 15.9398309,103.541744 13.6848111,101.217489 C11.4297913,98.893233 15.0595267,97.762701 9.42197717,97.762701 C4.4680868,97.762701 5.41770494,94.3196508 7.25097082,91.950385 L6.94032706,91.6389087 L29.5441452,68.9745039 C31.2627139,67.2513288 31.25653,64.4737633 29.5441452,62.7567886 L12.4487695,45.615591 C10.7201635,44.7729585 9.77165528,43.26801 8.76025287,41.9171878 L6.94032706,40.0923839 L7.03220109,40.0002636 C5.1746553,37.9794267 6.14277759,35.9020864 8.93768185,34.6322043 C11.9129039,33.2803937 1.66337552,26.4438404 3.79399341,24.0044298 C5.9246113,21.5650192 7.50178444,28.1552629 11.1181034,25.4732444 C14.7344224,22.791226 15.3394301,27.5032873 17.5323529,26.2559643 C19.7252756,25.0086413 15.7328171,22.008243 17.2373196,20.6110508 C18.7418221,19.2138587 23.5403238,24.2334981 23.5403238,21.2958688 C23.5403238,18.3582396 21.3718574,18.1291714 22.8366794,16.6603568 C24.3015015,15.1915422 26.4699678,16.889425 31.9928739,22.0998043 C32.8372775,22.8964253 33.3306104,23.6925033 33.5604852,24.4695826 L33.5604852,24.4695826 Z M108.581411,0.738657274 C110.235442,0.264371279 111.39433,0.860022381 112.131943,3.43238537 C112.869556,6.00474837 107.012445,14.6439235 105.050342,11.0307421 C103.08824,7.41756069 106.927379,1.21294327 108.581411,0.738657274 Z M5.80057116,117.422326 C6.07003646,118.503092 3.83429818,122.663544 1.17367126,122.733042 C-1.48695566,122.802539 1.46045846,116.722823 3.14127449,116.303748 C4.82209051,115.884674 5.53110586,116.341559 5.80057116,117.422326 Z" fill="url(#linearGradient-1)"></path>
                    <g filter="url(#filter-2)" transform="translate(48.650767, 69.847196) rotate(-315.000000) translate(-48.650767, -69.847196) translate(22.150767, 37.847196)">
                        <polygon fill="url(#linearGradient-3)" points="1.63294614 26.096238 52.070528 26.096238 52.070528 63.7062961 1.63294614 63.7062961"></polygon>
                        <mask id="mask-5" fill="white">
                            <use xlink:href="#path-4"></use>
                        </mask>
                        <use fill="#FFFFFF" xlink:href="#path-4"></use>
                        <rect fill="#EBEDF3" mask="url(#mask-5)" x="19.640912" y="13.4884652" width="1.81034483" height="16.8379405"></rect>
                        <path d="M52.0716295,27.0549344 C52.0622881,26.4828469 51.6497014,25.8151378 51.1273771,25.552127 L29.814044,14.8200269 L29.814044,29.2926471 L49.4419576,30.2751415 C50.0075736,30.3034539 50.8130949,30.0310862 51.2458667,29.6627682 L51.3225392,29.5975147 C51.7531947,29.2309978 52.0948732,28.4784398 52.0853959,27.898021 L52.0716295,27.0549344 Z" fill="#DFE2E4" mask="url(#mask-5)"></path>
                        <path d="M28.5548346,44.806874 L34.1672306,45.3835278 C34.7298572,45.4413357 35.4315923,45.0885927 35.727906,44.6065439 L35.7030859,44.6469218 C36.0023965,44.1599975 35.8808543,43.4825036 35.4285545,43.1313215 L30.1113357,39.0028393 C29.9632781,40.3089774 29.6685411,41.7599612 29.3087916,42.7382822 C29.3087916,42.7382822 29.0387058,43.7259513 28.5548346,44.806874 Z" fill="#DFE2E4" opacity="0.400000006" mask="url(#mask-5)"></path>
                        <path d="M35.3672999,29.5706208 L30.1837684,29.311154 L30.1837684,15.0061977 L32.662311,16.2542412 L35.3672999,29.5706208 Z" fill="#C5C7CD" mask="url(#mask-5)"></path>
                        <path d="M30.502981,0.920832393 L30.502981,47.6006116 C30.502981,47.6006116 27.991427,47.5557155 25.9631802,47.5557155 C25.9386259,47.5557155 25.9141978,47.5550155 25.8898963,47.5536326 C26.9419075,46.0317038 28.6926361,42.7591086 28.6926361,38.6237309 L28.6926361,6.30696076 C28.6926361,2.71620851 27.0281007,0.894114448 26.3594744,0.0310869857 C28.2302311,0.340661681 30.502981,0.920832393 30.502981,0.920832393 Z" fill="#DEE1E3" mask="url(#mask-5)"></path>
                    </g>
                </g>
            </g>
        </g>
    </g>
</svg>

<svg width="113" height="127" viewBox="0 0 113 127" xmlns="http://www.w3.org/2000/svg" xmlns:xlink="http://www.w3.org/1999/xlink"><title>Group 4</title><defs><linearGradient x1="89.692%" y1="14.609%" x2="21.361%" y2="100%" id="a"><stop stop-color="#F9344D" offset="0%"/><stop stop-color="#2F2FFF" offset="54.102%"/><stop stop-color="#52CEF8" offset="100%"/></linearGradient><filter x="-50%" y="-50%" width="200%" height="200%" filterUnits="objectBoundingBox" id="b"><feOffset dx="-2" dy="3" in="SourceAlpha" result="shadowOffsetOuter1"/><feGaussianBlur stdDeviation="10" in="shadowOffsetOuter1" result="shadowBlurOuter1"/><feColorMatrix values="0 0 0 0 0 0 0 0 0 0 0 0 0 0 0 0 0 0 0.552734375 0" in="shadowBlurOuter1" result="shadowMatrixOuter1"/><feMerge><feMergeNode in="shadowMatrixOuter1"/><feMergeNode in="SourceGraphic"/></feMerge></filter><linearGradient x1="50%" y1="0%" x2="50%" y2="100%" id="c"><stop stop-color="#FFF" stop-opacity=".1" offset="0%"/><stop stop-color="#FFF" stop-opacity="0" offset="100%"/></linearGradient><path d="M30.503 29.327v8.341c0 .457-.04.99-.11 1.553l5.036 3.91c.452.352.573 1.029.274 1.516l.025-.04c-.296.482-.998.834-1.56.777l-5.462-.562c-.627 1.272-1.597 2.734-2.743 2.734-1.144 0-2.107-1.458-2.73-2.729l-5.415.557c-.562.057-1.264-.295-1.56-.777l.025.04a1.179 1.179 0 0 1 .274-1.516l5.012-3.89a12.4 12.4 0 0 1-.118-1.573v-8.334l-18.807.941c-.566.028-1.371-.244-1.804-.612l-.077-.065c-.43-.367-.772-1.12-.763-1.7l.014-.843c.01-.572.422-1.24.944-1.503l20.493-10.319v-7.47c0-1.431.522-3.613 1.245-4.845 0 0 1.143-2.918 3.282-2.918 2.14 0 3.281 2.918 3.281 2.918.687 1.245 1.244 3.406 1.244 4.845v7.404l20.624 10.385c.523.263.935.93.945 1.503l.013.843c.01.58-.332 1.333-.762 1.7l-.077.065c-.433.368-1.238.64-1.804.612l-18.939-.948z" id="d"/></defs><g fill="none" fill-rule="evenodd"><path d="M33.56 24.47L50.645 41.6a4.371 4.371 0 0 0 6.2 0L74.43 23.968c.259-.69.73-1.393 1.477-2.097 5.523-5.21 9.917-11.086 11.382-9.617 1.465 1.469-2.93 5.875-2.93 8.813 0 2.937 4.799-2.082 6.303-.685 1.505 1.397-2.488 4.398-.295 5.645 2.193 1.247 13.813-14.986 17.43-12.304 3.616 2.682-7.99 12.248-5.86 14.688 2.13 2.44-5.95 4.64-2.975 5.992 2.942 1.337 3.86 3.57 1.587 5.688l-.667.67c-1.414 1.6-2.385 3.788-4.759 4.773L77.946 62.757a4.4 4.4 0 0 0 0 6.218l22.604 22.664-.005.005c2.374 2.415 11.365 13.145 5.787 13.145-5.638 0-10.813-5.896-13.068-3.572-2.255 2.325 2.647 6.247 2.007 7.851-.64 1.604-4.51-4.522-6.765-3.392-2.255 1.131 13.542 15.423 11.966 16.739-1.575 1.316-18.73-16.739-18.73-11.086 0 5.653 7.465 5.887 4.082 8.148s-5.21-5.887-11.975-10.409c-1.919-1.282-2.386-2.656-2.072-3.965L56.846 90.132a4.371 4.371 0 0 0-6.201 0l-15.396 15.437c.106 1.166-.457 2.368-2.15 3.499-6.764 4.522-14.657 19.22-18.04 16.958-3.382-2.261 10.148-9.044 10.148-14.697 0-.745-.09-1.271-.25-1.625l-.567-.568c-1.526-.523-4.762 3.184-5.948 2.193-1.575-1.316 2.255-4.522 0-5.653-2.255-1.13-6.125 4.996-6.765 3.392-.64-1.604 4.263-5.526 2.008-7.85-2.255-2.325 1.375-3.455-4.263-3.455-4.954 0-4.004-3.443-2.171-5.813l-.31-.311 22.603-22.664a4.4 4.4 0 0 0 0-6.218L12.45 45.616c-1.729-.843-2.677-2.348-3.689-3.699l-1.82-1.825.092-.092c-1.857-2.02-.89-4.098 1.906-5.368 2.975-1.352-7.275-8.188-5.144-10.628 2.13-2.439 3.708 4.151 7.324 1.47 3.616-2.683 4.221 2.03 6.414.782 2.193-1.247-1.8-4.248-.295-5.645 1.505-1.397 6.303 3.622 6.303.685 0-2.938-2.168-3.167-.703-4.636 1.465-1.468 3.633.23 9.156 5.44.844.796 1.338 1.593 1.567 2.37zM108.581.739c1.654-.475 2.813.121 3.55 2.693.739 2.573-5.119 11.212-7.08 7.599-1.963-3.613 1.876-9.818 3.53-10.292zM5.801 117.422c.269 1.081-1.967 5.242-4.627 5.311-2.661.07.286-6.01 1.967-6.43 1.681-.418 2.39.039 2.66 1.12z" fill="url(#a)"/><g filter="url(#b)" transform="rotate(45 -8.11 77.662)"><path fill="url(#c)" d="M1.633 26.096H52.07v37.61H1.633z"/><mask id="e" fill="#fff"><use xlink:href="#d"/></mask><use fill="#FFF" xlink:href="#d"/><path fill="#EBEDF3" mask="url(#e)" d="M19.641 13.488h1.81v16.838h-1.81z"/><path d="M52.072 27.055c-.01-.572-.422-1.24-.945-1.503L29.814 14.82v14.473l19.628.982c.566.028 1.371-.244 1.804-.612l.077-.065c.43-.367.772-1.12.762-1.7l-.013-.843z" fill="#DFE2E4" mask="url(#e)"/><path d="M28.555 44.807l5.612.577c.563.057 1.265-.295 1.56-.777l-.024.04c.3-.487.178-1.164-.274-1.516l-5.318-4.128c-.148 1.306-.442 2.757-.802 3.735 0 0-.27.988-.754 2.069z" fill="#DFE2E4" opacity=".4" mask="url(#e)"/><path d="M35.367 29.57l-5.183-.259V15.006l2.478 1.248 2.705 13.317z" fill="#C5C7CD" mask="url(#e)"/><path d="M30.503.92V47.6s-2.512-.044-4.54-.044l-.073-.002c1.052-1.522 2.803-4.795 2.803-8.93V6.307c0-3.59-1.665-5.413-2.334-6.276 1.871.31 4.144.89 4.144.89z" fill="#DEE1E3" mask="url(#e)"/></g></g></svg>
